X:1
T:[ID 4-45v]
T:[ID 4-45v]
T:Bezeichnung standardisiert: Tantz Tantz
T:Urheber unbekannt Datum in der hier transkribierten schriftlichen Quelle: 1767
C:Urheber unbekannt
C:Datum in der hier transkribierten schriftlichen Quelle: 1767
L:1/8
M:2/4
K:D
V:1 treble 
V:1
 AddA | BB B2 | Aggf | fe e2 | AddA | BB B2 | gecA | d2 d2 :: fa a2 | fa a2 | ggec | dd d2 | %12
 fa a2 | fa a2 | ggec | d2 d2 :| %16

